src/assets/icons/info.svg

<svg width="16" height="16" viewBox="0 0 16 16" fill="none" xmlns="http://www.w3.org/2000/svg">
<g clip-path="url(#clip0_8874_15276)">
<path fill-rule="evenodd" clip-rule="evenodd" d="M7.46212 15.9823C5.75937 15.8671 4.19139 15.2341 2.84549 14.1188C2.62517 13.9362 2.06341 13.3745 1.88085 13.1541C0.86044 11.9228 0.245966 10.5127 0.0591298 8.97353C-0.190527 6.91694 0.362734 4.84142 1.59743 3.20274C1.84631 2.87243 2.0146 2.68061 2.34852 2.34669C2.68244 2.01278 2.87425 1.84449 3.20456 1.5956C4.71326 0.458852 6.61894 -0.109387 8.50676 0.0146126C10.2345 0.128079 11.8013 0.756403 13.156 1.87903C13.3763 2.06159 13.938 2.62335 14.1206 2.84367C14.6904 3.53124 15.1066 4.22437 15.4247 5.01519C16.4661 7.60495 16.0764 10.5754 14.404 12.7951C14.1551 13.1254 13.9869 13.3172 13.6529 13.6511C13.319 13.985 13.1272 14.1533 12.7969 14.4022C11.2814 15.5441 9.36665 16.1112 7.46212 15.9823ZM7.62026 14.273C6.32024 14.1948 5.09151 13.7201 4.05612 12.8959C3.84005 12.7239 3.27572 12.1596 3.10373 11.9435C2.37581 11.029 1.91693 9.95641 1.76843 8.82218C1.60384 7.5652 1.81867 6.30503 2.39272 5.15985C2.69624 4.55438 3.04594 4.07596 3.56192 3.5603C4.28974 2.83295 5.05209 2.35889 6.00874 2.03877C7.60869 1.50341 9.31979 1.62907 10.8461 2.39402C11.4433 2.69334 11.925 3.04598 12.4393 3.56031C13.1663 4.28724 13.6407 5.05011 13.9609 6.00691C14.4962 7.60687 14.3706 9.31796 13.6056 10.8442C13.3064 11.4412 12.954 11.9228 12.4393 12.4377C11.7137 13.1638 10.9498 13.6388 9.99272 13.959C9.42993 14.1474 8.96293 14.2365 8.3427 14.2739C8.03284 14.2926 7.94372 14.2925 7.62026 14.273ZM7.77706 12.1225C7.49014 12.0476 7.24753 11.8021 7.17131 11.5094C7.13244 11.3602 7.13306 7.6617 7.17197 7.51231C7.23508 7.27001 7.42356 7.04227 7.64166 6.94477C7.87432 6.84076 8.14875 6.84526 8.38451 6.95693C8.50209 7.01264 8.68539 7.19058 8.74996 7.31173C8.86031 7.51874 8.85566 7.42203 8.85566 9.51213C8.85566 11.5724 8.85874 11.5006 8.76221 11.691C8.7044 11.8051 8.55499 11.9619 8.43563 12.0337C8.31438 12.1067 8.14806 12.1519 8.00073 12.1519C7.9396 12.1519 7.83894 12.1387 7.77706 12.1225ZM7.8188 6.09371C7.56671 6.0461 7.40929 5.96728 7.23161 5.79966C6.99917 5.58041 6.89072 5.34834 6.87692 5.04084C6.86702 4.82018 6.89855 4.65416 6.98247 4.48514C7.30844 3.82862 8.1363 3.6394 8.70591 4.09122C9.16108 4.45226 9.26618 5.12649 8.94177 5.60419C8.85433 5.73294 8.67634 5.89673 8.54255 5.97155C8.33969 6.085 8.04029 6.13553 7.8188 6.09371Z" fill="currentColor"/>
</g>
<defs>
<clipPath id="clip0_8874_15276">
<rect width="16" height="16" fill="white" transform="translate(0 -0.000732422)"/>
</clipPath>
</defs>
</svg>

<svg xmlns="http://www.w3.org/2000/svg" width="16" height="16" fill="none">
  <g clip-path="url(#a)">
    <path fill="currentColor" fill-rule="evenodd" d="M7.462 15.982c-1.703-.115-3.27-.748-4.617-1.863-.22-.183-.782-.745-.964-.965C.86 11.923.246 10.513.059 8.974a8 8 0 0 1 1.538-5.771c.25-.33.418-.522.752-.856.333-.334.525-.503.856-.751A7.998 7.998 0 0 1 8.507.015c1.728.113 3.294.741 4.649 1.864.22.183.782.744.965.965a8.002 8.002 0 0 1 .283 9.951 7.02 7.02 0 0 1-.751.856 7.028 7.028 0 0 1-.856.751 8.014 8.014 0 0 1-5.335 1.58Zm.158-1.709a6.299 6.299 0 0 1-3.564-1.377 9.71 9.71 0 0 1-.952-.953 6.321 6.321 0 0 1-1.336-3.12 6.3 6.3 0 0 1 .625-3.663 5.868 5.868 0 0 1 1.169-1.6 6.017 6.017 0 0 1 2.447-1.52 6.266 6.266 0 0 1 4.837.355A5.88 5.88 0 0 1 12.44 3.56a6.015 6.015 0 0 1 1.522 2.447c.535 1.6.41 3.311-.355 4.837a5.883 5.883 0 0 1-1.167 1.594 6.013 6.013 0 0 1-2.446 1.521 5.941 5.941 0 0 1-1.65.315c-.31.019-.4.019-.723-.001Zm.157-2.15a.874.874 0 0 1-.606-.614c-.039-.149-.038-3.847.001-3.997a.894.894 0 0 1 .47-.567.894.894 0 0 1 .743.012c.117.056.3.234.365.355.11.207.106.11.106 2.2 0 2.06.003 1.989-.094 2.179-.058.114-.207.27-.326.343a.89.89 0 0 1-.435.118c-.061 0-.162-.013-.224-.03Zm.042-6.03a1.048 1.048 0 0 1-.587-.293 1.037 1.037 0 0 1-.355-.76c-.01-.22.022-.386.105-.555a1.13 1.13 0 0 1 1.724-.394 1.14 1.14 0 0 1 .236 1.513 1.394 1.394 0 0 1-.4.368 1.179 1.179 0 0 1-.723.122Z" clip-rule="evenodd"/>
  </g>
  <defs>
    <clipPath id="a">
      <path fill="#fff" d="M0 0h16v16H0z"/>
    </clipPath>
  </defs>
</svg>
